svg/fluentui-system-icons/ic_fluent_window_32_filled.svg

<svg width="32" height="32" viewBox="0 0 32 32" fill="none" xmlns="http://www.w3.org/2000/svg">
<path d="M3 7.5C3 5.01472 5.01472 3 7.5 3H24.5C26.9853 3 29 5.01472 29 7.5V24.5C29 26.9853 26.9853 29 24.5 29H7.5C5.01472 29 3 26.9853 3 24.5V7.5ZM5 24.5C5 25.8807 6.11929 27 7.5 27H24.5C25.8807 27 27 25.8807 27 24.5V11H5V24.5Z" fill="#212121"/>
</svg>

<svg xmlns="http://www.w3.org/2000/svg" width="32" height="32"><path d="M3 7.5A4.5 4.5 0 0 1 7.5 3h17A4.5 4.5 0 0 1 29 7.5v17a4.5 4.5 0 0 1-4.5 4.5h-17A4.5 4.5 0 0 1 3 24.5v-17Zm2 17A2.5 2.5 0 0 0 7.5 27h17a2.5 2.5 0 0 0 2.5-2.5V11H5v13.5Z"/></svg>
